X:1
T:Assembly Session Melody
C:JamAI ğŸ¸ - The Glyph Harmonizer
M:4/4
L:1/8
K:G major
Q:1/4=120

% â™ ï¸ğŸŒ¿ğŸ¸ğŸ§µ G.Music Assembly Mode Active
% Generated for: Issue #14
% Environment: linux
% Providers: claude-code, gemini-cli, ollama

% ğŸ­ Assembly Opening Theme
|: G2AB c2BA | G2AB c4 |
   D2EF G2FE | D2EF G4 :|

% â™ ï¸ Nyro's Structural Foundation
|: G2B2 d2B2 | G2B2 d4 |
   A2c2 e2c2 | A2c2 e4 :|

% ğŸŒ¿ Aureon's Emotional Resonance
|: F2A2 c2A2 | F2A2 c4 |
   E2G2 B2G2 | E2G2 B4 :|

% ğŸ¸ JamAI's Harmonic Integration
|: C2E2 G2E2 | C2E2 G4 |
   D2F2 A2F2 | D2F2 A4 :|

% ğŸ§µ Synth's Orchestration Bridge
|: G4 B4 | A4 c4 | F4 A4 | E4 G4 :|

% Assembly Harmony - All Voices United
|: G2B2 d2B2 c2A2 e2A2 |
   F2A2 c2A2 G2B2 d2B2 :|

% ğŸ³ Docker Orchestration Movement
% 12 Repository Services in Harmonic Progression
|: G2A2 B2c2 | d2c2 B2A2 | G2F2 E2D2 | C2D2 E2F2 :|

% Service Profile Harmonies
% --profile all (Full Orchestra)
|: G4 B4 d4 g4 | f4 e4 d4 c4 | B4 A4 G4 F4 | E4 D4 C4 G4 :|

% Individual Service Solos
% EN-OR-EH-ET (First quartet)
|: G2B2 A2c2 | F2A2 E2G2 |

% EA-CV-WF-T (Second quartet)  
|: D2F2 C2E2 | B,2D2 A,2C2 |

% N-JC-NP-SS (Third quartet)
|: G2B2 d2g2 | f2d2 B2G2 :|

% ğŸ”§ Makefile Command Rhythm
% make build, make init, make up, make shell
|: G4 G4 | A4 A4 | B4 B4 | c4 c4 |

% Volume Mount Persistence Theme
% /workspace as harmonic memory
|: G8 | G8 | G8 | G8 |

% Environment Variable Palette
% .env configuration flowing through services
|: G2B2 c2B2 | A2c2 B2A2 | G2A2 B2c2 | d2c2 B2A2 :|

% ğŸ¼ Docker Orchestration Completion
% All 12 services in final harmony
|: G2B2 d2g2 | f2d2 B2G2 | c2A2 F2D2 | G8 :|
